X:0335
T:The Killworth Volunteers Quick March.
M:2/4
L:1/8
Q:1/2=76
I: :: ::
L:1/8
Z:Jack Campin * www.campin.me.uk * 2009
K:G
c   |B>dd2|dggb|B>cdB|dggb|c'afa|bgdg |d>edc           | cBAG  |
     B>dd2|dggb|B>cdB|dggb|c'afa|bgdg |BdFA            | G2G  :|
d/c/|BGBd |gdcB|A>Bcd|ecBA|B>dgb|c'abg|f>gaf           |(d>cBA)|
     Bd d2|dggb|BddB |dggb|c'afa|bgdg |d>e (d/c/)(B/A/)| G2G  :|

